X: 24944
T: Maid I Never Forgot, The
R: reel
M: 4/4
K: Edorian
EEEF GEGA|BDFA dBAc|BGEF GABc|ddec dBAF|
EGGF EFGA|BAAA dddc|BGEF GABc|dBAF GEED||
EDEF GFGA|BAAd dBAc|BGEF GGGA|Bdec dBAF|
EEBE GGGA|BAFA dFAc|BGEF GABc|dBAF GEEe||
BBBd eeef|gaaf gfed|BgeB GABc|ddec dBAF|
EEBE dEce|BBAd dBAc|BGEF GABc|dBAF GEEA||
BBBd eBEF|GEAf gfed|bBEF GABc|ddde dBAF|
EBBE dEcE|BBAd dBAc|BGEF GGGA|BdAF GEE2||

